!!!COM: Bach, Johann Sebastian
!!!CDT: 1685/3//-1750/7/28/
!!!OTL@@DE: O Mensch, bewein' dein' Suende gross
!!!AGN: 4-Part Chorale
!!!SCT: BH 306
!!!SCT: BWV 402
**harm	**root	**kern	**kern	**kern	**kern
!	!	!bass	!tenor	!alto	!soprno
*	*Iorgan	*Iorgan	*Iorgan	*Iorgan	*Iorgan
*M4/4	*M4/4	*M4/4	*M4/4	*M4/4	*M4/4
*met(c)	*met(c)	*met(c)	*met(c)	*met(c)	*met(c)
*MM60	*MM60	*MM60	*MM60	*MM60	*MM60
*k[b-e-a-]	*k[b-e-a-]	*k[b-e-a-]	*k[b-e-a-]	*k[b-e-a-]	*k[b-e-a-]
*E-:	*E-:	*E-:	*E-:	*E-:	*E-:
*>[A,A,B]	*>[A,A,B]	*>[A,A,B]	*>[A,A,B]	*>[A,A,B]	*>[A,A,B]
*>A	*>A	*>A	*>A	*>A	*>A
I	4EE-	4E-	4G	4B-	4e-
=1	=1	=1	=1	=1	=1
IV	4AA-	8A-	4A-	4.c	4e-
.	.	8G	.	.	.
ii	4FF	4F	4A-	.	4f
.	.	.	.	16Bn	.
.	.	.	.	16c	.
Vb/vi	4GG	4BBn	4G	4.d	8g
.	.	.	.	.	8f
vi	4CC	[4C	4G	.	4e-
.	.	.	.	16c	.
.	.	.	.	16d	.
=2	=2	=2	=2	=2	=2
vi	4CC	4C]	8c	4.e-	4g
.	.	.	8B-	.	.
viioD7/iii	4FF#	4FF#	4An	.	4an
.	.	.	.	8d	.
iii;	4GG;	4GG;	4G;	4d;	4b-;
iii	4GG	4G	4d	[4g	4b-
=3	=3	=3	=3	=3	=3
IVb	8AA-	8C	8e-	8g]	4a-y
V7b	8BB-	8D	8B-	4f	.
I	4EE-	4E-	4B-	.	4g
.	.	.	.	4e-	.
V7b/V	8FF	8AAn	8c	.	4f
V7b/vi	8GG	8BBn	8G	8d	.
vi	4CC	[4C	4G	8c	8e-
.	.	.	.	8d	8f
=4	=4	=4	=4	=4	=4
vi	4CC	4C]	8c	4e-	4g
.	.	.	8B-	.	.
V7/V	4FF	4FF	4c	4e-	4an
V;	4BB-;	4BB-;	4B-;	4d;	4b-;
ii	4FF	8F	[4A-y	[4f	4cc
.	.	8E-	.	.	.
=5	=5	=5	=5	=5	=5
V7b	8BB-	8D	8A-]	8f]	4b-
Ic	8EE-	8BB-	4G	16e-	.
.	.	.	.	16d	.
IVb	8AA-	8C	.	8e-	4a-
V7b	8BB-	8D	8F	8B-	.
I	4EE-	8E-	4.E-	8B-	4g
.	.	8D	.	16e-	.
.	.	.	.	16d	.
IVb	4AA-	8C	.	[4e-	4a-
.	.	8BB-	8B-	.	.
!!linebreak: 3
=6	=6	=6	=6	=6	=6
ii7b	8FF	8AA-	8c	8e-]	2f
viib	8DD	8FF	8A-	16d	.
.	.	.	.	16c	.
V	4BB-	4BB-	8F	4d	.
.	.	.	8B-	.	.
I;	4EE-;	4EE-;	4G;	4B-;	4e-;
=:|!	=:|!	=:|!	=:|!	=:|!	=:|!
*>B	*>B	*>B	*>B	*>B	*>B
I	8EE-	8EE-	8G	8b-	4ee-
ii7	8FF	8FF	8A-	8a-	.
=7	=7	=7	=7	=7	=7
Ib	4EE-	4GG	4B-	4g	4ee-
V7b/V	4FF	4AAn	[4c	4f	4ee-
V	4BB-	8BB-	8c]	4f	4dd
.	.	8C	16B-	.	.
.	.	.	16A-y	.	.
V7d/IV	4EE-	4D-	4G	4e-	4b-
=8	=8	=8	=8	=8	=8
IVb	4AA-	8C	4A-	8e-	4cc
.	.	8BB-	.	8d-	.
IV	4AA-	4AA-	4A-	4e-	4cc
I;	4EE-;	4E-;	4B-;	4e-;	4g;
vi	4CC	8C	4c	4g	4ee-
.	.	8BB-	.	.	.
=9	=9	=9	=9	=9	=9
V7b/V	4FF	8AAn	8c	4f	4ee-
.	.	8GG	8B-	.	.
V7/V	4FF	4FF	4An	4f	4ee-
V	4BB-	8BB-	8B-	4f	4dd
.	.	8C	8A	.	.
Vb	4BB-	4D	[4B-	4f	4b-
=10	=10	=10	=10	=10	=10
V7/II	4CC	4C	8B-]	4g	4cc
.	.	.	16An	.	.
.	.	.	16G	.	.
II	4FF	4F	4A	8f	4cc
.	.	.	.	8e-	.
V;	4BB-;	4BB-;	4B-;	4d;	4b-;
I	4EE-	[4E-	4B-	8e-	8g
.	.	.	.	8f	8a-
=11	=11	=11	=11	=11	=11
I	4EE-	8E-]	4e-	4g	4b-
.	.	8D-	.	.	.
IVb	4AA-	8C	4e-	4a-	4cc
.	.	8Dn	.	.	.
V/IV	4EE-	4E-	8e-	4g	4b-
.	.	.	4d-	.	.
Vb/ii	4CC	4En	.	[4g	4g
.	.	.	8c	.	.
!!linebreak: 3
=12	=12	=12	=12	=12	=12
ii	4FF	4F	4c	8g]	2a-
.	.	.	.	16f	.
.	.	.	.	16e-	.
viiD7/vi	4BB	4BBn	8dn	8f	.
.	.	.	8f	8d	.
vi;	4CC;	4C;	4c;	4e-;	4g;
IV/IV	4DD-	[4D-	4A-	4f	4f
=13	=13	=13	=13	=13	=13
V7d/IV	4EE-	4D-]	4B-	4e-	4g
IV	4AA-	4C	4c	4e-	4a-
V	4BB-	8BB-	4dn	4f	4b-
.	.	8AA-	.	.	.
iii	4GG	4GG	8Dn	4g	4b-
.	.	.	8En	.	.
=14	=14	=14	=14	=14	=14
ii	4FF	4FF	4F	8c	4a-
.	.	.	.	8d	.
Ib	4EE-	8GG	4B-	[4e-	4g
.	.	8AA-	.	.	.
V;	4BB-;	4BB-;	4B-;	8e-]	4f;
.	.	.	.	8d;	.
V	4BB-	4B-	4d	4f	4b-
=15	=15	=15	=15	=15	=15
Vb/V	4FF	4An	4c	4f	4cc
V7c	4BB-	4A-	[4B-	4f	4dd
Ib	4EE-	4.G	8B-]	8g	4ee-
.	.	.	8c	8an	.
iii	4GG	.	4d	[4b-	4dd
.	.	8F	.	.	.
=16	=16	=16	=16	=16	=16
V7b/ii	4CC	4En	4G	4b-]	4cc
V7b/iii	4DD	4F#	4d	4an	4cc
iii;	4GG;	4G;	4d;	4g;	4b-;
IV	4AA-	[4A-y	4c	4e-	4e-
=17	=17	=17	=17	=17	=17
V7d	4BB-	8A-]	4B-	4d	4f
.	.	8G	.	.	.
I	4EE-	8F	4.B-	4e-	4g
.	.	8E-	.	.	.
V7b	8BB-	8D	.	8f	4a-
V7	8BB-	8BB-	8F	8d	.
I	8EE-	8E-	8G	8B-	4g
Ib	8EE-	8GG	8B-	[8e-	.
=18	=18	=18	=18	=18	=18
ii7b	8FF	4AA-	8c	8e-]	2f
viib	8DD	.	8A-	16d	.
.	.	.	.	16c	.
V	4BB-	4BB-	8F	4d	.
.	.	.	16B-	.	.
.	.	.	16A-	.	.
I;	4EE-;	4EE-;	4G;	4B-;	4e-;
==	==	==	==	==	==
*-	*-	*-	*-	*-	*-
!!chor2scor: -l 3 -s 0.6 -o %b.pmx
!!!YEC: Copyright 1994, David Huron
!!!YEC: Changes/Additions 2001 by Craig Stuart Sapp
!!!YEN: United States of America
!!!SMA: 371 Bach Chorales, edited by Ludwig Erk, C.F. Peters
!!!PDT: 1850, 1865
!!!ONB: Harmony and Root analysis done manually
